ibt/assets/img/icons/whatsapp-ico.svg

<svg width="22" height="21" viewBox="0 0 22 21" fill="none" xmlns="http://www.w3.org/2000/svg">
<path fill-rule="evenodd" clip-rule="evenodd" d="M0.666016 10.4167C0.666016 4.6729 5.33892 0 11.0827 0C16.8265 0 21.4994 4.6729 21.4994 10.4167C21.4994 16.1604 16.8265 20.8333 11.0827 20.8333C9.187 20.8333 7.34159 20.3223 5.72739 19.3529L1.57508 20.6957C1.35631 20.7666 1.116 20.7089 0.95324 20.5461C0.790479 20.3834 0.732795 20.143 0.803644 19.9243L2.14642 15.772C1.17704 14.1578 0.666016 12.3126 0.666016 10.4167ZM6.13884 18.1665C7.61373 19.1093 9.3232 19.6078 11.0827 19.6078C16.1508 19.6078 20.2739 15.4847 20.2739 10.4167C20.2739 5.3486 16.1508 1.22549 11.0827 1.22549C6.01461 1.22549 1.89151 5.3486 1.89151 10.4167C1.89151 12.1762 2.39008 13.8856 3.33289 15.3605C3.43151 15.5147 3.45592 15.7049 3.39967 15.879L2.33838 19.161L5.62016 18.0997C5.79393 18.0434 5.98445 18.0676 6.13884 18.1665ZM14.8428 10.3062C15.1984 10.3062 15.5327 10.4446 15.7843 10.6962L17.7755 12.6882C18.2965 13.2092 18.296 14.052 17.775 14.5716L17.2778 15.0689C16.3905 15.9572 14.5947 15.9297 13.3509 15.6897C11.501 15.3322 9.75121 14.4045 8.42419 13.0772C7.09717 11.7497 6.16938 9.99952 5.81227 8.14919C5.48211 6.43947 5.72018 4.93432 6.43292 4.22167L6.93061 3.72387C7.45109 3.20304 8.29413 3.20353 8.81362 3.72436L10.8049 5.71556C11.3232 6.23491 11.3232 7.0796 10.8056 7.59847L10.3072 8.097C9.99932 8.4047 10.0037 8.89858 10.3069 9.20162L12.2987 11.1943C12.6039 11.4995 13.0981 11.4995 13.4033 11.1943L13.902 10.696C14.1523 10.4451 14.4864 10.3062 14.842 10.3062H14.8428ZM13.5887 14.4581C14.9792 14.7264 16.0508 14.5223 16.391 14.1821C16.5877 13.9813 16.7102 13.8615 16.7863 13.7871C16.9089 13.6672 16.9117 13.6645 16.9117 13.6299C16.9117 13.6253 16.9122 13.6217 16.9121 13.6182C16.9118 13.575 16.836 13.5325 14.8974 11.5831C14.867 11.5529 14.8188 11.5527 14.7889 11.5826L14.2897 12.0814C13.4944 12.877 12.2066 12.8761 11.4118 12.0811L9.42031 10.0887C8.62405 9.293 8.62503 8.00465 9.4208 7.20969L9.91825 6.71189C9.94813 6.682 9.94813 6.63227 9.91776 6.60189L7.92649 4.6107C7.89563 4.57983 7.84763 4.58057 7.8175 4.6107L7.31956 5.1085C7.31956 5.10874 7.31932 5.10874 7.31932 5.10874C6.97911 5.44877 6.77509 6.5208 7.04353 7.91155C7.2233 8.84223 7.75676 10.6357 9.31083 12.1901C10.8651 13.7448 12.6583 14.2783 13.5887 14.4581Z" fill="#DDDDDD"/>
</svg>

<svg width="22" height="21" fill="none" xmlns="http://www.w3.org/2000/svg"><path fill-rule="evenodd" clip-rule="evenodd" d="M.666 10.417C.666 4.673 5.339 0 11.083 0c5.743 0 10.416 4.673 10.416 10.417 0 5.743-4.672 10.416-10.416 10.416-1.896 0-3.741-.51-5.356-1.48l-4.152 1.343a.612.612 0 01-.771-.772l1.342-4.152a10.384 10.384 0 01-1.48-5.355zm5.473 7.75a9.161 9.161 0 004.944 1.44c5.068 0 9.19-4.122 9.19-9.19s-4.122-9.192-9.19-9.192-9.191 4.124-9.191 9.192a9.16 9.16 0 001.44 4.944.613.613 0 01.068.518l-1.062 3.282L5.62 18.1a.612.612 0 01.519.066zm8.704-7.86c.355 0 .69.138.941.39l1.992 1.991a1.33 1.33 0 01-.001 1.884l-.497.497c-.887.888-2.683.86-3.927.62a9.615 9.615 0 01-4.927-2.612A9.617 9.617 0 015.812 8.15c-.33-1.71-.092-3.215.62-3.927l.499-.498a1.33 1.33 0 011.883 0l1.99 1.992c.52.519.52 1.364.002 1.882l-.499.499a.78.78 0 000 1.105l1.992 1.992a.78.78 0 001.104 0l.499-.498c.25-.25.584-.39.94-.39zm-1.254 4.151c1.39.268 2.462.064 2.802-.276.197-.2.32-.32.395-.395.123-.12.126-.123.126-.157v-.012c0-.043-.076-.085-2.015-2.035a.077.077 0 00-.108 0l-.5.498a2.034 2.034 0 01-2.877 0L9.42 10.09a2.034 2.034 0 010-2.88l.498-.497c.03-.03.03-.08 0-.11L7.926 4.61a.076.076 0 00-.109 0l-.497.498c-.34.34-.545 1.412-.276 2.803.18.93.713 2.724 2.267 4.278a8.366 8.366 0 004.278 2.268z" fill="#DDD"/></svg>
